icons/svg/certificate.svg

<svg xmlns="http://www.w3.org/2000/svg" version="1.1" baseProfile="full" width="24" height="24" viewBox="0 0 24.00 24.00" xml:space="preserve"><path fill="#000" fill-opacity="1" stroke-width="1.333" stroke-linejoin="miter" d="M4 2.998c-1.105 0-1.99.896-1.99 2l-.01 10c0 1.104.886 2 1.99 2H12V22l3-3 3 3v-5.002h2c1.104 0 2-.896 2-2V5c0-1.105-.904-1.863-2-2h-3.998L16 2.998H4zM12 5l3 2 3-2v3.5l3 1.5-3 1.5V15l-3-2-3 2v-3.5L9 10l3-1.5V5zM4 5h5v2H4V5zm0 4h3v2H4V9zm0 4h5v2H4v-2z"/></svg>

﻿<?xml version="1.0" encoding="utf-8"?>
<!DOCTYPE svg PUBLIC "-//W3C//DTD SVG 1.1//EN" "http://www.w3.org/Graphics/SVG/1.1/DTD/svg11.dtd">
<svg xmlns="http://www.w3.org/2000/svg" xmlns:xlink="http://www.w3.org/1999/xlink" version="1.1" baseProfile="full" width="24" height="24" viewBox="0 0 24.00 24.00" enable-background="new 0 0 24.00 24.00" xml:space="preserve">
	<path fill="#000000" fill-opacity="1" stroke-width="1.33333" stroke-linejoin="miter" d="M 4,2.998C 2.89498,2.998 2.00977,3.894 2.00977,4.998L 2,14.998C 2,16.102 2.88623,16.998 3.99023,16.998L 12,16.998L 12,22L 15,19L 18,22L 18,16.998L 20,16.998C 21.104,16.998 22,16.102 22,14.998L 22,8L 22,5.998L 22,5C 22,3.8954 21.096,3.1371 20,3L 16.002,3L 16,2.998L 4,2.998 Z M 12,5L 15,7L 18,5L 18,8.5L 21,10L 18,11.5L 18,15L 15,13L 12,15L 12,11.5L 9,10L 12,8.5L 12,5 Z M 4,5L 9,5L 9,7L 4,7L 4,5 Z M 4,9L 7,9L 7,11L 4,11L 4,9 Z M 4,13L 9,13L 9,15L 4,15L 4,13 Z "/>
</svg>
